assets/images/footer/shape-2.svg

<svg fill="none" height="102" viewBox="0 0 102 102" width="102" xmlns="http://www.w3.org/2000/svg"><g fill="#fff" fill-opacity=".08"><path d="m1.8667 33.1959c1.03095 0 1.8667.8361 1.8667 1.8676s-.83575 1.8677-1.8667 1.8677c-1.030956 0-1.86669995-.8362-1.8667-1.8677s.835744-1.8676 1.8667-1.8676z"/><path d="m18.2939 33.1959c1.031 0 1.8667.8361 1.8667 1.8676s-.8357 1.8677-1.8667 1.8677c-1.0309 0-1.8667-.8362-1.8667-1.8677s.8358-1.8676 1.8667-1.8676z"/><path d="m34.7209 33.1952c1.031 0 1.8667.8362 1.8667 1.8677 0 1.0314-.8357 1.8676-1.8667 1.8676-1.0309 0-1.8667-.8362-1.8667-1.8676 0-1.0315.8358-1.8677 1.8667-1.8677z"/><path d="m50.9341 33.1952c1.0309 0 1.8667.8362 1.8667 1.8677 0 1.0314-.8358 1.8676-1.8667 1.8676-1.031 0-1.8667-.8362-1.8667-1.8676 0-1.0315.8357-1.8677 1.8667-1.8677z"/><path d="m1.8667 16.7607c1.03095 0 1.8667.8362 1.8667 1.8676 0 1.0315-.83575 1.8677-1.8667 1.8677-1.030956 0-1.86669995-.8362-1.8667-1.8677-.00000005-1.0314.835744-1.8676 1.8667-1.8676z"/><path d="m18.2939 16.7607c1.031 0 1.8667.8362 1.8667 1.8676 0 1.0315-.8357 1.8677-1.8667 1.8677-1.0309 0-1.8667-.8362-1.8667-1.8677 0-1.0314.8358-1.8676 1.8667-1.8676z"/><path d="m34.7209 16.7607c1.031 0 1.8667.8362 1.8667 1.8676 0 1.0315-.8357 1.8677-1.8667 1.8677-1.0309 0-1.8667-.8362-1.8667-1.8677 0-1.0314.8358-1.8676 1.8667-1.8676z"/><path d="m50.9341 16.7607c1.0309 0 1.8667.8362 1.8667 1.8676 0 1.0315-.8358 1.8677-1.8667 1.8677-1.031 0-1.8667-.8362-1.8667-1.8677 0-1.0314.8357-1.8676 1.8667-1.8676z"/><path d="m1.8667.325195c1.03095 0 1.8667.836195 1.8667 1.867665 0 1.03146-.83575 1.86763-1.8667 1.86763-1.030956 0-1.86669995-.83617-1.8667-1.86763-.00000005-1.03147.835744-1.867665 1.8667-1.867665z"/><path d="m18.2939.325195c1.031 0 1.8667.836195 1.8667 1.867665 0 1.03146-.8357 1.86763-1.8667 1.86763-1.0309 0-1.8667-.83617-1.8667-1.86763 0-1.03147.8358-1.867665 1.8667-1.867665z"/><path d="m34.7209.325546c1.031 0 1.8667.836164 1.8667 1.867634 0 1.03146-.8357 1.86763-1.8667 1.86763-1.0309 0-1.8667-.83617-1.8667-1.86763 0-1.03147.8358-1.867634 1.8667-1.867634z"/><path d="m50.9341.325546c1.0309 0 1.8667.836164 1.8667 1.867634 0 1.03146-.8358 1.86763-1.8667 1.86763-1.031 0-1.8667-.83617-1.8667-1.86763 0-1.03147.8357-1.867634 1.8667-1.867634z"/><path d="m66.9037 33.1959c1.0309 0 1.8667.8361 1.8667 1.8676s-.8358 1.8677-1.8667 1.8677c-1.031 0-1.8667-.8362-1.8667-1.8677s.8357-1.8676 1.8667-1.8676z"/><path d="m83.3307 33.1959c1.0309 0 1.8667.8361 1.8667 1.8676s-.8358 1.8677-1.8667 1.8677c-1.031 0-1.8667-.8362-1.8667-1.8677s.8357-1.8676 1.8667-1.8676z"/><path d="m99.7576 33.1959c1.0314 0 1.8664.8361 1.8664 1.8676s-.835 1.8677-1.8664 1.8677c-1.031 0-1.8667-.8362-1.8667-1.8677s.8357-1.8676 1.8667-1.8676z"/><path d="m66.9037 16.7607c1.0309 0 1.8667.8362 1.8667 1.8676 0 1.0315-.8358 1.8677-1.8667 1.8677-1.031 0-1.8667-.8362-1.8667-1.8677 0-1.0314.8357-1.8676 1.8667-1.8676z"/><path d="m83.3307 16.7607c1.0309 0 1.8667.8362 1.8667 1.8676 0 1.0315-.8358 1.8677-1.8667 1.8677-1.031 0-1.8667-.8362-1.8667-1.8677 0-1.0314.8357-1.8676 1.8667-1.8676z"/><path d="m99.7576 16.7607c1.0314 0 1.8664.8362 1.8664 1.8676 0 1.0315-.835 1.8677-1.8664 1.8677-1.031 0-1.8667-.8362-1.8667-1.8677 0-1.0314.8357-1.8676 1.8667-1.8676z"/><path d="m66.9037.325211c1.0309 0 1.8667.836179 1.8667 1.867649 0 1.03146-.8358 1.86763-1.8667 1.86763-1.031 0-1.8667-.83617-1.8667-1.86763 0-1.03147.8357-1.867649 1.8667-1.867649z"/><path d="m83.3307.325195c1.0309 0 1.8667.836195 1.8667 1.867665 0 1.03146-.8358 1.86763-1.8667 1.86763-1.031 0-1.8667-.83617-1.8667-1.86763 0-1.03147.8357-1.867665 1.8667-1.867665z"/><path d="m99.7576.325195c1.0314 0 1.8664.836195 1.8664 1.867665 0 1.03146-.835 1.86763-1.8664 1.86763-1.031 0-1.8667-.83617-1.8667-1.86763 0-1.03147.8357-1.867665 1.8667-1.867665z"/><path d="m1.8667 82.2031c1.03095 0 1.8667.8362 1.8667 1.8677 0 1.0314-.83575 1.8676-1.8667 1.8676-1.030956 0-1.86669995-.8362-1.8667-1.8676-.00000005-1.0315.835744-1.8677 1.8667-1.8677z"/><path d="m18.2939 82.2031c1.031 0 1.8667.8362 1.8667 1.8677 0 1.0314-.8357 1.8676-1.8667 1.8676-1.0309 0-1.8667-.8362-1.8667-1.8676 0-1.0315.8358-1.8677 1.8667-1.8677z"/><path d="m34.7209 82.2028c1.031 0 1.8667.8362 1.8667 1.8676 0 1.0315-.8357 1.8677-1.8667 1.8677-1.0309 0-1.8667-.8362-1.8667-1.8677 0-1.0314.8358-1.8676 1.8667-1.8676z"/><path d="m50.9341 82.2028c1.0309 0 1.8667.8362 1.8667 1.8676 0 1.0315-.8358 1.8677-1.8667 1.8677-1.031 0-1.8667-.8362-1.8667-1.8677 0-1.0314.8357-1.8676 1.8667-1.8676z"/><path d="m1.8667 65.768c1.03095 0 1.8667.8361 1.8667 1.8676s-.83575 1.8676-1.8667 1.8676c-1.030956 0-1.86669995-.8361-1.8667-1.8676s.835744-1.8676 1.8667-1.8676z"/><path d="m18.2939 65.768c1.031 0 1.8667.8361 1.8667 1.8676s-.8357 1.8676-1.8667 1.8676c-1.0309 0-1.8667-.8361-1.8667-1.8676s.8358-1.8676 1.8667-1.8676z"/><path d="m34.7209 65.7676c1.031 0 1.8667.8362 1.8667 1.8677 0 1.0314-.8357 1.8676-1.8667 1.8676-1.0309 0-1.8667-.8362-1.8667-1.8676 0-1.0315.8358-1.8677 1.8667-1.8677z"/><path d="m50.9341 65.7676c1.0309 0 1.8667.8362 1.8667 1.8677 0 1.0314-.8358 1.8676-1.8667 1.8676-1.031 0-1.8667-.8362-1.8667-1.8676 0-1.0315.8357-1.8677 1.8667-1.8677z"/><path d="m1.8667 98.2646c1.03095 0 1.8667.8362 1.8667 1.8674 0 1.032-.83575 1.868-1.8667 1.868-1.030956 0-1.86669995-.836-1.8667-1.868-.00000005-1.0312.835744-1.8674 1.8667-1.8674z"/><path d="m1.8667 49.3325c1.03095 0 1.8667.8361 1.8667 1.8676 0 1.0314-.83575 1.8676-1.8667 1.8676-1.030956 0-1.86669995-.8362-1.8667-1.8676-.00000005-1.0315.835744-1.8676 1.8667-1.8676z"/><path d="m18.2939 98.2646c1.031 0 1.8667.8362 1.8667 1.8674 0 1.032-.8357 1.868-1.8667 1.868-1.0309 0-1.8667-.836-1.8667-1.868 0-1.0312.8358-1.8674 1.8667-1.8674z"/><path d="m18.2939 49.3325c1.031 0 1.8667.8361 1.8667 1.8676 0 1.0314-.8357 1.8676-1.8667 1.8676-1.0309 0-1.8667-.8362-1.8667-1.8676 0-1.0315.8358-1.8676 1.8667-1.8676z"/><path d="m34.7209 98.2649c1.031 0 1.8667.8362 1.8667 1.8681 0 1.031-.8357 1.867-1.8667 1.867-1.0309 0-1.8667-.836-1.8667-1.867 0-1.0319.8358-1.8681 1.8667-1.8681z"/><path d="m50.9341 98.2649c1.0309 0 1.8667.8362 1.8667 1.8681 0 1.031-.8358 1.867-1.8667 1.867-1.031 0-1.8667-.836-1.8667-1.867 0-1.0319.8357-1.8681 1.8667-1.8681z"/><path d="m34.7209 49.3328c1.031 0 1.8667.8362 1.8667 1.8676 0 1.0315-.8357 1.8677-1.8667 1.8677-1.0309 0-1.8667-.8362-1.8667-1.8677 0-1.0314.8358-1.8676 1.8667-1.8676z"/><path d="m50.9341 49.3328c1.0309 0 1.8667.8362 1.8667 1.8676 0 1.0315-.8358 1.8677-1.8667 1.8677-1.031 0-1.8667-.8362-1.8667-1.8677 0-1.0314.8357-1.8676 1.8667-1.8676z"/><path d="m66.9037 82.2031c1.0309 0 1.8667.8362 1.8667 1.8677 0 1.0314-.8358 1.8676-1.8667 1.8676-1.031 0-1.8667-.8362-1.8667-1.8676 0-1.0315.8357-1.8677 1.8667-1.8677z"/><path d="m83.3307 82.2031c1.0309 0 1.8667.8362 1.8667 1.8677 0 1.0314-.8358 1.8676-1.8667 1.8676-1.031 0-1.8667-.8362-1.8667-1.8676 0-1.0315.8357-1.8677 1.8667-1.8677z"/><path d="m99.7576 82.2031c1.0314 0 1.8664.8362 1.8664 1.8677 0 1.0314-.835 1.8676-1.8664 1.8676-1.031 0-1.8667-.8362-1.8667-1.8676 0-1.0315.8357-1.8677 1.8667-1.8677z"/><path d="m66.9037 65.7676c1.0309 0 1.8667.8362 1.8667 1.8677 0 1.0314-.8358 1.8676-1.8667 1.8676-1.031 0-1.8667-.8362-1.8667-1.8676 0-1.0315.8357-1.8677 1.8667-1.8677z"/><path d="m83.3307 65.768c1.0309 0 1.8667.8361 1.8667 1.8676s-.8358 1.8676-1.8667 1.8676c-1.031 0-1.8667-.8361-1.8667-1.8676s.8357-1.8676 1.8667-1.8676z"/><path d="m99.7576 65.768c1.0314 0 1.8664.8361 1.8664 1.8676s-.835 1.8676-1.8664 1.8676c-1.031 0-1.8667-.8361-1.8667-1.8676s.8357-1.8676 1.8667-1.8676z"/><path d="m66.9037 98.2646c1.0309 0 1.8667.8362 1.8667 1.8674 0 1.032-.8358 1.868-1.8667 1.868-1.031 0-1.8667-.836-1.8667-1.868 0-1.0312.8357-1.8674 1.8667-1.8674z"/><path d="m66.9037 49.3325c1.0309 0 1.8667.8361 1.8667 1.8676 0 1.0314-.8358 1.8676-1.8667 1.8676-1.031 0-1.8667-.8362-1.8667-1.8676 0-1.0315.8357-1.8676 1.8667-1.8676z"/><path d="m83.3307 98.2646c1.0309 0 1.8667.8362 1.8667 1.8674 0 1.032-.8358 1.868-1.8667 1.868-1.031 0-1.8667-.836-1.8667-1.868 0-1.0312.8357-1.8674 1.8667-1.8674z"/><path d="m83.3307 49.3325c1.0309 0 1.8667.8361 1.8667 1.8676 0 1.0314-.8358 1.8676-1.8667 1.8676-1.031 0-1.8667-.8362-1.8667-1.8676 0-1.0315.8357-1.8676 1.8667-1.8676z"/><path d="m99.7576 98.2646c1.0314 0 1.8664.8362 1.8664 1.8674 0 1.032-.835 1.868-1.8664 1.868-1.031 0-1.8667-.836-1.8667-1.868 0-1.0312.8357-1.8674 1.8667-1.8674z"/><path d="m99.7576 49.3325c1.0314 0 1.8664.8361 1.8664 1.8676 0 1.0314-.835 1.8676-1.8664 1.8676-1.031 0-1.8667-.8362-1.8667-1.8676 0-1.0315.8357-1.8676 1.8667-1.8676z"/></g></svg>

<svg width="102" height="102" viewBox="0 0 102 102" fill="none" xmlns="http://www.w3.org/2000/svg">
<path d="M1.8667 33.1959C2.89765 33.1959 3.7334 34.032 3.7334 35.0635C3.7334 36.095 2.89765 36.9312 1.8667 36.9312C0.835744 36.9312 4.50645e-08 36.095 0 35.0635C-4.50645e-08 34.032 0.835744 33.1959 1.8667 33.1959Z" fill="white" fill-opacity="0.08"/>
<path d="M18.2939 33.1959C19.3249 33.1959 20.1606 34.032 20.1606 35.0635C20.1606 36.095 19.3249 36.9312 18.2939 36.9312C17.263 36.9312 16.4272 36.095 16.4272 35.0635C16.4272 34.032 17.263 33.1959 18.2939 33.1959Z" fill="white" fill-opacity="0.08"/>
<path d="M34.7209 33.1952C35.7519 33.1952 36.5876 34.0314 36.5876 35.0629C36.5876 36.0943 35.7519 36.9305 34.7209 36.9305C33.69 36.9305 32.8542 36.0943 32.8542 35.0629C32.8542 34.0314 33.69 33.1952 34.7209 33.1952Z" fill="white" fill-opacity="0.08"/>
<path d="M50.9341 33.1952C51.965 33.1952 52.8008 34.0314 52.8008 35.0629C52.8008 36.0943 51.965 36.9305 50.9341 36.9305C49.9031 36.9305 49.0674 36.0943 49.0674 35.0629C49.0674 34.0314 49.9031 33.1952 50.9341 33.1952Z" fill="white" fill-opacity="0.08"/>
<path d="M1.8667 16.7607C2.89765 16.7607 3.7334 17.5969 3.7334 18.6283C3.7334 19.6598 2.89765 20.496 1.8667 20.496C0.835744 20.496 4.50645e-08 19.6598 0 18.6283C-4.50645e-08 17.5969 0.835744 16.7607 1.8667 16.7607Z" fill="white" fill-opacity="0.08"/>
<path d="M18.2939 16.7607C19.3249 16.7607 20.1606 17.5969 20.1606 18.6283C20.1606 19.6598 19.3249 20.496 18.2939 20.496C17.263 20.496 16.4272 19.6598 16.4272 18.6283C16.4272 17.5969 17.263 16.7607 18.2939 16.7607Z" fill="white" fill-opacity="0.08"/>
<path d="M34.7209 16.7607C35.7519 16.7607 36.5876 17.5969 36.5876 18.6283C36.5876 19.6598 35.7519 20.496 34.7209 20.496C33.69 20.496 32.8542 19.6598 32.8542 18.6283C32.8542 17.5969 33.69 16.7607 34.7209 16.7607Z" fill="white" fill-opacity="0.08"/>
<path d="M50.9341 16.7607C51.965 16.7607 52.8008 17.5969 52.8008 18.6283C52.8008 19.6598 51.965 20.496 50.9341 20.496C49.9031 20.496 49.0674 19.6598 49.0674 18.6283C49.0674 17.5969 49.9031 16.7607 50.9341 16.7607Z" fill="white" fill-opacity="0.08"/>
<path d="M1.8667 0.325195C2.89765 0.325195 3.7334 1.16139 3.7334 2.19286C3.7334 3.22432 2.89765 4.06049 1.8667 4.06049C0.835744 4.06049 4.50645e-08 3.22432 0 2.19286C-4.50645e-08 1.16139 0.835744 0.325195 1.8667 0.325195Z" fill="white" fill-opacity="0.08"/>
<path d="M18.2939 0.325195C19.3249 0.325195 20.1606 1.16139 20.1606 2.19286C20.1606 3.22432 19.3249 4.06049 18.2939 4.06049C17.263 4.06049 16.4272 3.22432 16.4272 2.19286C16.4272 1.16139 17.263 0.325195 18.2939 0.325195Z" fill="white" fill-opacity="0.08"/>
<path d="M34.7209 0.325546C35.7519 0.325546 36.5876 1.16171 36.5876 2.19318C36.5876 3.22464 35.7519 4.06081 34.7209 4.06081C33.69 4.06081 32.8542 3.22464 32.8542 2.19318C32.8542 1.16171 33.69 0.325546 34.7209 0.325546Z" fill="white" fill-opacity="0.08"/>
<path d="M50.9341 0.325546C51.965 0.325546 52.8008 1.16171 52.8008 2.19318C52.8008 3.22464 51.965 4.06081 50.9341 4.06081C49.9031 4.06081 49.0674 3.22464 49.0674 2.19318C49.0674 1.16171 49.9031 0.325546 50.9341 0.325546Z" fill="white" fill-opacity="0.08"/>
<path d="M66.9037 33.1959C67.9346 33.1959 68.7704 34.032 68.7704 35.0635C68.7704 36.095 67.9346 36.9312 66.9037 36.9312C65.8727 36.9312 65.037 36.095 65.037 35.0635C65.037 34.032 65.8727 33.1959 66.9037 33.1959Z" fill="white" fill-opacity="0.08"/>
<path d="M83.3307 33.1959C84.3616 33.1959 85.1974 34.032 85.1974 35.0635C85.1974 36.095 84.3616 36.9312 83.3307 36.9312C82.2997 36.9312 81.464 36.095 81.464 35.0635C81.464 34.032 82.2997 33.1959 83.3307 33.1959Z" fill="white" fill-opacity="0.08"/>
<path d="M99.7576 33.1959C100.789 33.1959 101.624 34.032 101.624 35.0635C101.624 36.095 100.789 36.9312 99.7576 36.9312C98.7266 36.9312 97.8909 36.095 97.8909 35.0635C97.8909 34.032 98.7266 33.1959 99.7576 33.1959Z" fill="white" fill-opacity="0.08"/>
<path d="M66.9037 16.7607C67.9346 16.7607 68.7704 17.5969 68.7704 18.6283C68.7704 19.6598 67.9346 20.496 66.9037 20.496C65.8727 20.496 65.037 19.6598 65.037 18.6283C65.037 17.5969 65.8727 16.7607 66.9037 16.7607Z" fill="white" fill-opacity="0.08"/>
<path d="M83.3307 16.7607C84.3616 16.7607 85.1974 17.5969 85.1974 18.6283C85.1974 19.6598 84.3616 20.496 83.3307 20.496C82.2997 20.496 81.464 19.6598 81.464 18.6283C81.464 17.5969 82.2997 16.7607 83.3307 16.7607Z" fill="white" fill-opacity="0.08"/>
<path d="M99.7576 16.7607C100.789 16.7607 101.624 17.5969 101.624 18.6283C101.624 19.6598 100.789 20.496 99.7576 20.496C98.7266 20.496 97.8909 19.6598 97.8909 18.6283C97.8909 17.5969 98.7266 16.7607 99.7576 16.7607Z" fill="white" fill-opacity="0.08"/>
<path d="M66.9037 0.325211C67.9346 0.325211 68.7704 1.16139 68.7704 2.19286C68.7704 3.22432 67.9346 4.06049 66.9037 4.06049C65.8727 4.06049 65.037 3.22432 65.037 2.19286C65.037 1.16139 65.8727 0.325211 66.9037 0.325211Z" fill="white" fill-opacity="0.08"/>
<path d="M83.3307 0.325195C84.3616 0.325195 85.1974 1.16139 85.1974 2.19286C85.1974 3.22432 84.3616 4.06049 83.3307 4.06049C82.2997 4.06049 81.464 3.22432 81.464 2.19286C81.464 1.16139 82.2997 0.325195 83.3307 0.325195Z" fill="white" fill-opacity="0.08"/>
<path d="M99.7576 0.325195C100.789 0.325195 101.624 1.16139 101.624 2.19286C101.624 3.22432 100.789 4.06049 99.7576 4.06049C98.7266 4.06049 97.8909 3.22432 97.8909 2.19286C97.8909 1.16139 98.7266 0.325195 99.7576 0.325195Z" fill="white" fill-opacity="0.08"/>
<path d="M1.8667 82.2031C2.89765 82.2031 3.7334 83.0393 3.7334 84.0708C3.7334 85.1022 2.89765 85.9384 1.8667 85.9384C0.835744 85.9384 4.50645e-08 85.1022 0 84.0708C-4.50645e-08 83.0393 0.835744 82.2031 1.8667 82.2031Z" fill="white" fill-opacity="0.08"/>
<path d="M18.2939 82.2031C19.3249 82.2031 20.1606 83.0393 20.1606 84.0708C20.1606 85.1022 19.3249 85.9384 18.2939 85.9384C17.263 85.9384 16.4272 85.1022 16.4272 84.0708C16.4272 83.0393 17.263 82.2031 18.2939 82.2031Z" fill="white" fill-opacity="0.08"/>
<path d="M34.7209 82.2028C35.7519 82.2028 36.5876 83.039 36.5876 84.0704C36.5876 85.1019 35.7519 85.9381 34.7209 85.9381C33.69 85.9381 32.8542 85.1019 32.8542 84.0704C32.8542 83.039 33.69 82.2028 34.7209 82.2028Z" fill="white" fill-opacity="0.08"/>
<path d="M50.9341 82.2028C51.965 82.2028 52.8008 83.039 52.8008 84.0704C52.8008 85.1019 51.965 85.9381 50.9341 85.9381C49.9031 85.9381 49.0674 85.1019 49.0674 84.0704C49.0674 83.039 49.9031 82.2028 50.9341 82.2028Z" fill="white" fill-opacity="0.08"/>
<path d="M1.8667 65.768C2.89765 65.768 3.7334 66.6041 3.7334 67.6356C3.7334 68.6671 2.89765 69.5032 1.8667 69.5032C0.835744 69.5032 4.50645e-08 68.6671 0 67.6356C-4.50645e-08 66.6041 0.835744 65.768 1.8667 65.768Z" fill="white" fill-opacity="0.08"/>
<path d="M18.2939 65.768C19.3249 65.768 20.1606 66.6041 20.1606 67.6356C20.1606 68.6671 19.3249 69.5032 18.2939 69.5032C17.263 69.5032 16.4272 68.6671 16.4272 67.6356C16.4272 66.6041 17.263 65.768 18.2939 65.768Z" fill="white" fill-opacity="0.08"/>
<path d="M34.7209 65.7676C35.7519 65.7676 36.5876 66.6038 36.5876 67.6353C36.5876 68.6667 35.7519 69.5029 34.7209 69.5029C33.69 69.5029 32.8542 68.6667 32.8542 67.6353C32.8542 66.6038 33.69 65.7676 34.7209 65.7676Z" fill="white" fill-opacity="0.08"/>
<path d="M50.9341 65.7676C51.965 65.7676 52.8008 66.6038 52.8008 67.6353C52.8008 68.6667 51.965 69.5029 50.9341 69.5029C49.9031 69.5029 49.0674 68.6667 49.0674 67.6353C49.0674 66.6038 49.9031 65.7676 50.9341 65.7676Z" fill="white" fill-opacity="0.08"/>
<path d="M1.8667 98.2646C2.89765 98.2646 3.7334 99.1008 3.7334 100.132C3.7334 101.164 2.89765 102 1.8667 102C0.835744 102 4.50645e-08 101.164 0 100.132C-4.50645e-08 99.1008 0.835744 98.2646 1.8667 98.2646Z" fill="white" fill-opacity="0.08"/>
<path d="M1.8667 49.3325C2.89765 49.3325 3.7334 50.1686 3.7334 51.2001C3.7334 52.2315 2.89765 53.0677 1.8667 53.0677C0.835744 53.0677 4.50645e-08 52.2315 0 51.2001C-4.50645e-08 50.1686 0.835744 49.3325 1.8667 49.3325Z" fill="white" fill-opacity="0.08"/>
<path d="M18.2939 98.2646C19.3249 98.2646 20.1606 99.1008 20.1606 100.132C20.1606 101.164 19.3249 102 18.2939 102C17.263 102 16.4272 101.164 16.4272 100.132C16.4272 99.1008 17.263 98.2646 18.2939 98.2646Z" fill="white" fill-opacity="0.08"/>
<path d="M18.2939 49.3325C19.3249 49.3325 20.1606 50.1686 20.1606 51.2001C20.1606 52.2315 19.3249 53.0677 18.2939 53.0677C17.263 53.0677 16.4272 52.2315 16.4272 51.2001C16.4272 50.1686 17.263 49.3325 18.2939 49.3325Z" fill="white" fill-opacity="0.08"/>
<path d="M34.7209 98.2649C35.7519 98.2649 36.5876 99.1011 36.5876 100.133C36.5876 101.164 35.7519 102 34.7209 102C33.69 102 32.8542 101.164 32.8542 100.133C32.8542 99.1011 33.69 98.2649 34.7209 98.2649Z" fill="white" fill-opacity="0.08"/>
<path d="M50.9341 98.2649C51.965 98.2649 52.8008 99.1011 52.8008 100.133C52.8008 101.164 51.965 102 50.9341 102C49.9031 102 49.0674 101.164 49.0674 100.133C49.0674 99.1011 49.9031 98.2649 50.9341 98.2649Z" fill="white" fill-opacity="0.08"/>
<path d="M34.7209 49.3328C35.7519 49.3328 36.5876 50.169 36.5876 51.2004C36.5876 52.2319 35.7519 53.0681 34.7209 53.0681C33.69 53.0681 32.8542 52.2319 32.8542 51.2004C32.8542 50.169 33.69 49.3328 34.7209 49.3328Z" fill="white" fill-opacity="0.08"/>
<path d="M50.9341 49.3328C51.965 49.3328 52.8008 50.169 52.8008 51.2004C52.8008 52.2319 51.965 53.0681 50.9341 53.0681C49.9031 53.0681 49.0674 52.2319 49.0674 51.2004C49.0674 50.169 49.9031 49.3328 50.9341 49.3328Z" fill="white" fill-opacity="0.08"/>
<path d="M66.9037 82.2031C67.9346 82.2031 68.7704 83.0393 68.7704 84.0708C68.7704 85.1022 67.9346 85.9384 66.9037 85.9384C65.8727 85.9384 65.037 85.1022 65.037 84.0708C65.037 83.0393 65.8727 82.2031 66.9037 82.2031Z" fill="white" fill-opacity="0.08"/>
<path d="M83.3307 82.2031C84.3616 82.2031 85.1974 83.0393 85.1974 84.0708C85.1974 85.1022 84.3616 85.9384 83.3307 85.9384C82.2997 85.9384 81.464 85.1022 81.464 84.0708C81.464 83.0393 82.2997 82.2031 83.3307 82.2031Z" fill="white" fill-opacity="0.08"/>
<path d="M99.7576 82.2031C100.789 82.2031 101.624 83.0393 101.624 84.0708C101.624 85.1022 100.789 85.9384 99.7576 85.9384C98.7266 85.9384 97.8909 85.1022 97.8909 84.0708C97.8909 83.0393 98.7266 82.2031 99.7576 82.2031Z" fill="white" fill-opacity="0.08"/>
<path d="M66.9037 65.7676C67.9346 65.7676 68.7704 66.6038 68.7704 67.6353C68.7704 68.6667 67.9346 69.5029 66.9037 69.5029C65.8727 69.5029 65.037 68.6667 65.037 67.6353C65.037 66.6038 65.8727 65.7676 66.9037 65.7676Z" fill="white" fill-opacity="0.08"/>
<path d="M83.3307 65.768C84.3616 65.768 85.1974 66.6041 85.1974 67.6356C85.1974 68.6671 84.3616 69.5032 83.3307 69.5032C82.2997 69.5032 81.464 68.6671 81.464 67.6356C81.464 66.6041 82.2997 65.768 83.3307 65.768Z" fill="white" fill-opacity="0.08"/>
<path d="M99.7576 65.768C100.789 65.768 101.624 66.6041 101.624 67.6356C101.624 68.6671 100.789 69.5032 99.7576 69.5032C98.7266 69.5032 97.8909 68.6671 97.8909 67.6356C97.8909 66.6041 98.7266 65.768 99.7576 65.768Z" fill="white" fill-opacity="0.08"/>
<path d="M66.9037 98.2646C67.9346 98.2646 68.7704 99.1008 68.7704 100.132C68.7704 101.164 67.9346 102 66.9037 102C65.8727 102 65.037 101.164 65.037 100.132C65.037 99.1008 65.8727 98.2646 66.9037 98.2646Z" fill="white" fill-opacity="0.08"/>
<path d="M66.9037 49.3325C67.9346 49.3325 68.7704 50.1686 68.7704 51.2001C68.7704 52.2315 67.9346 53.0677 66.9037 53.0677C65.8727 53.0677 65.037 52.2315 65.037 51.2001C65.037 50.1686 65.8727 49.3325 66.9037 49.3325Z" fill="white" fill-opacity="0.08"/>
<path d="M83.3307 98.2646C84.3616 98.2646 85.1974 99.1008 85.1974 100.132C85.1974 101.164 84.3616 102 83.3307 102C82.2997 102 81.464 101.164 81.464 100.132C81.464 99.1008 82.2997 98.2646 83.3307 98.2646Z" fill="white" fill-opacity="0.08"/>
<path d="M83.3307 49.3325C84.3616 49.3325 85.1974 50.1686 85.1974 51.2001C85.1974 52.2315 84.3616 53.0677 83.3307 53.0677C82.2997 53.0677 81.464 52.2315 81.464 51.2001C81.464 50.1686 82.2997 49.3325 83.3307 49.3325Z" fill="white" fill-opacity="0.08"/>
<path d="M99.7576 98.2646C100.789 98.2646 101.624 99.1008 101.624 100.132C101.624 101.164 100.789 102 99.7576 102C98.7266 102 97.8909 101.164 97.8909 100.132C97.8909 99.1008 98.7266 98.2646 99.7576 98.2646Z" fill="white" fill-opacity="0.08"/>
<path d="M99.7576 49.3325C100.789 49.3325 101.624 50.1686 101.624 51.2001C101.624 52.2315 100.789 53.0677 99.7576 53.0677C98.7266 53.0677 97.8909 52.2315 97.8909 51.2001C97.8909 50.1686 98.7266 49.3325 99.7576 49.3325Z" fill="white" fill-opacity="0.08"/>
</svg>
